svgs/miccheck.svg

<svg width="192" height="192" viewBox="0 0 192 192" fill="none" xmlns="http://www.w3.org/2000/svg">
<path d="M23 98.0573C23 98.0573 31.7803 96.3373 36.949 98.0573C47.4688 101.558 41.2428 118.939 51.828 122.236C67.8116 127.214 54.1987 76.3792 69.4968 83.1783C77.8662 86.8981 76.9363 139.904 88.0955 131.535C99.2548 123.166 94.6051 59 105.764 59C115.064 61.7898 117.854 115.726 123.433 115.726C129.013 115.726 133.662 85.2913 139.242 85.9682C148.983 87.1497 145.705 102.508 155.051 105.497C160.24 107.156 169 105.497 169 105.497" stroke="black" stroke-width="14" stroke-linecap="round" stroke-linejoin="round"/>
</svg>

<svg width="192" height="192" viewBox="0 0 192 192" fill="none" xmlns="http://www.w3.org/2000/svg"><path d="M23 98.057s8.78-1.72 13.949 0c10.52 3.501 4.294 20.882 14.879 24.179 15.984 4.978 2.37-45.857 17.669-39.058 8.37 3.72 7.44 56.726 18.599 48.357C99.255 123.166 94.606 59 105.763 59c9.3 2.79 12.09 56.726 17.669 56.726 5.58 0 10.229-30.435 15.809-29.758 9.741 1.182 6.463 16.54 15.809 19.529 5.189 1.659 13.949 0 13.949 0" stroke="#000" stroke-width="14" stroke-linecap="round" stroke-linejoin="round"/></svg>
